assets/logos/icons/arrow-back.svg

<svg height="24" viewBox="0 0 24 24" width="24" xmlns="http://www.w3.org/2000/svg"><path d="m5.61528137 11h8.19842713v2h-8.17213562l3.22949493 3.2294949-1.41421356 1.4142136-5.65685425-5.6568543 5.65685425-5.6568542 1.41421356 1.41421356zm16.19842713 0v2h-2v-2zm-3 0v2h-4v-2z" fill="#492f5c" fill-rule="evenodd"/></svg>

<svg xmlns="http://www.w3.org/2000/svg" width="24" height="24" viewBox="0 0 24 24">
  <path fill="#492F5C" fill-rule="evenodd" d="M5.61528137,11 L13.8137085,11 L13.8137085,13 L5.64157288,13 L8.87106781,16.2294949 L7.45685425,17.6437085 L1.8,11.9868542 L7.45685425,6.33 L8.87106781,7.74421356 L5.61528137,11 Z M21.8137085,11 L21.8137085,13 L19.8137085,13 L19.8137085,11 L21.8137085,11 Z M18.8137085,11 L18.8137085,13 L14.8137085,13 L14.8137085,11 L18.8137085,11 Z"/>
</svg>
